assets/img/braze_icons/monitor-02.svg

<svg fill="none" height="24" viewBox="0 0 24 24" width="24" xmlns="http://www.w3.org/2000/svg"><g clip-rule="evenodd" fill="#801ed7" fill-rule="evenodd"><path d="m12 21c-1.438 0-2.79374.3252-3.99573.9017-.49797.2388-1.09527.0287-1.33411-.4692-.23884-.498-.02877-1.0953.4692-1.3342 1.46761-.7039 3.11854-1.0983 4.86064-1.0983s3.393.3944 4.8606 1.0983c.498.2389.7081.8362.4692 1.3342-.2388.4979-.8361.708-1.3341.4692-1.202-.5765-2.5577-.9017-3.9957-.9017z"/><path d="m6.7587 2h10.4826c.805-.00001 1.4693-.00002 2.0105.04419.5621.04593 1.0788.14449 1.5642.39178.7526.3835 1.3645.99542 1.748 1.74807.2473.48533.3459 1.00204.3918 1.56413.0442.54119.0442 1.20555.0442 2.01051v4.48262c0 .805 0 1.4693-.0442 2.0105-.0459.5621-.1445 1.0788-.3918 1.5642-.3835.7526-.9954 1.3645-1.748 1.748-.4854.2473-1.0021.3459-1.5642.3918-.5412.0442-1.2055.0442-2.0105.0442h-10.48257c-.80499 0-1.46935 0-2.01056-.0442-.56209-.0459-1.0788-.1445-1.56413-.3918-.75265-.3835-1.36457-.9954-1.74807-1.748-.24729-.4854-.34585-1.0021-.39178-1.5642-.044213-.5412-.044202-1.2055-.04419-2.0105v-4.4826c-.000012-.80497-.000023-1.46933.04419-2.01052.04593-.5621.14449-1.07881.39178-1.56414.3835-.75265.99542-1.36457 1.74807-1.74807.48533-.24729 1.00204-.34585 1.56413-.39178.5412-.04421 1.20556-.0442 2.01053-.04419z"/></g></svg>

<svg width="24" height="24" viewBox="0 0 24 24" fill="none" xmlns="http://www.w3.org/2000/svg">
<path fill-rule="evenodd" clip-rule="evenodd" d="M12 21C10.562 21 9.20626 21.3252 8.00427 21.9017C7.5063 22.1405 6.909 21.9304 6.67016 21.4325C6.43132 20.9345 6.64139 20.3372 7.13936 20.0983C8.60697 19.3944 10.2579 19 12 19C13.7421 19 15.393 19.3944 16.8606 20.0983C17.3586 20.3372 17.5687 20.9345 17.3298 21.4325C17.091 21.9304 16.4937 22.1405 15.9957 21.9017C14.7937 21.3252 13.438 21 12 21Z" fill="#801ED7"/>
<path fill-rule="evenodd" clip-rule="evenodd" d="M6.7587 2H17.2413C18.0463 1.99999 18.7106 1.99998 19.2518 2.04419C19.8139 2.09012 20.3306 2.18868 20.816 2.43597C21.5686 2.81947 22.1805 3.43139 22.564 4.18404C22.8113 4.66937 22.9099 5.18608 22.9558 5.74817C23 6.28936 23 6.95372 23 7.75868V12.2413C23 13.0463 23 13.7106 22.9558 14.2518C22.9099 14.8139 22.8113 15.3306 22.564 15.816C22.1805 16.5686 21.5686 17.1805 20.816 17.564C20.3306 17.8113 19.8139 17.9099 19.2518 17.9558C18.7106 18 18.0463 18 17.2413 18H6.75873C5.95374 18 5.28938 18 4.74817 17.9558C4.18608 17.9099 3.66937 17.8113 3.18404 17.564C2.43139 17.1805 1.81947 16.5686 1.43597 15.816C1.18868 15.3306 1.09012 14.8139 1.04419 14.2518C0.999977 13.7106 0.999988 13.0463 1 12.2413V7.7587C0.999988 6.95373 0.999977 6.28937 1.04419 5.74818C1.09012 5.18608 1.18868 4.66937 1.43597 4.18404C1.81947 3.43139 2.43139 2.81947 3.18404 2.43597C3.66937 2.18868 4.18608 2.09012 4.74817 2.04419C5.28937 1.99998 5.95373 1.99999 6.7587 2Z" fill="#801ED7"/>
</svg>
